X:18640
T:Wheels of the World, The
R:reel
H:See also #391
Z:id:hn-reel-311
M:C|
K:Dmix
dD~D2 FAGF|EC~C2 EFGE|AD~D2 ABde|=fedc Ad^ce|
dD~D2 FAGF|EC~C2 EFGE|A2dB AdcA|GECE ~D3e:|
|:dAdf afdf|eg~g2 ag~g2|dAdf afdf|ged^c Adde|
d3f afdf|eg~g2 aggb|a2af efge|fage d3e:|


